assets/Expressionless face/Flat/expressionless_face_flat.svg

<svg width="32" height="32" viewBox="0 0 32 32" fill="none" xmlns="http://www.w3.org/2000/svg">
<path d="M15.9989 29.9978C25.3333 29.9978 29.9978 23.7303 29.9978 15.9989C29.9978 8.26751 25.3333 2 15.9989 2C6.66443 2 2 8.26751 2 15.9989C2 23.7303 6.66443 29.9978 15.9989 29.9978Z" fill="#FFB02E"/>
<path d="M8 13C8 12.4477 8.44772 12 9 12H13C13.5523 12 14 12.4477 14 13C14 13.5523 13.5523 14 13 14H9C8.44772 14 8 13.5523 8 13Z" fill="#402A32"/>
<path d="M18 13C18 12.4477 18.4477 12 19 12H23C23.5523 12 24 12.4477 24 13C24 13.5523 23.5523 14 23 14H19C18.4477 14 18 13.5523 18 13Z" fill="#402A32"/>
<path d="M11 19C10.4477 19 10 19.4477 10 20C10 20.5523 10.4477 21 11 21H21C21.5523 21 22 20.5523 22 20C22 19.4477 21.5523 19 21 19H11Z" fill="#402A32"/>
</svg>

<svg xmlns="http://www.w3.org/2000/svg" width="32" height="32" fill="none"><path fill="#FFB02E" d="M15.999 29.998c9.334 0 13.999-6.268 13.999-14 0-7.73-4.665-13.998-14-13.998C6.665 2 2 8.268 2 15.999c0 7.731 4.664 13.999 13.999 13.999Z"/><path fill="#402A32" d="M8 13a1 1 0 0 1 1-1h4a1 1 0 1 1 0 2H9a1 1 0 0 1-1-1ZM18 13a1 1 0 0 1 1-1h4a1 1 0 1 1 0 2h-4a1 1 0 0 1-1-1ZM11 19a1 1 0 1 0 0 2h10a1 1 0 1 0 0-2H11Z"/></svg>
